packages/core/src/svgs/inst.svg

<svg width="24" height="24" viewBox="0 0 24 24" fill="none" xmlns="http://www.w3.org/2000/svg">
<g clip-path="url(#clip0_31_11837)">
<path d="M0 0H24V24H0V0Z" fill="#F0F3FA"/>
<path d="M12.7544 19.2856C12.3386 19.3285 12.0001 18.9856 12.0001 18.5613V16.547C12.0001 16.127 12.3429 15.7928 12.7501 15.7113C13.6135 15.5395 14.3922 15.0779 14.9573 14.4029C15.5224 13.7279 15.8399 12.8801 15.8572 11.9999C15.8399 11.1197 15.5224 10.2719 14.9573 9.59691C14.3922 8.92191 13.6135 8.46026 12.7501 8.28847C12.3386 8.20276 12.0001 7.87276 12.0001 7.45704V5.43847C12.0001 5.01847 12.3386 4.67561 12.7544 4.71847C14.5505 4.91023 16.212 5.76047 17.4181 7.10513C18.6243 8.44979 19.2896 10.1935 19.2858 11.9999C19.2858 15.7885 16.4229 18.8999 12.7544 19.2856ZM8.8715 5.42133C9.34293 5.19418 9.85721 5.55847 9.85721 6.07276V17.9185C9.85721 18.4328 9.34293 18.797 8.8715 18.5699C7.63113 17.9762 6.5832 17.0449 5.84792 15.8828C5.11263 14.7208 4.71976 13.375 4.71436 11.9999C4.71436 9.11561 6.40721 6.62133 8.8715 5.42561V5.42133Z" fill="#3F75FF"/>
</g>
<defs>
<clipPath id="clip0_31_11837">
<rect width="24" height="24" fill="white"/>
</clipPath>
</defs>
</svg>

<svg xmlns="http://www.w3.org/2000/svg" width="24" height="24" fill="none" viewBox="0 0 24 24"><g clip-path="url(#a)"><path fill="#F0F3FA" d="M0 0h24v24H0z"/><path fill="#3F75FF" d="M12.754 19.286c-.415.042-.754-.3-.754-.725v-2.014c0-.42.343-.754.75-.836A3.86 3.86 0 0 0 15.857 12a3.86 3.86 0 0 0-3.107-3.712c-.411-.085-.75-.415-.75-.831V5.438c0-.42.339-.762.754-.72A7.307 7.307 0 0 1 19.286 12c0 3.789-2.863 6.9-6.532 7.286M8.871 5.42c.472-.227.986.137.986.652v11.846c0 .514-.514.878-.985.65A7.32 7.32 0 0 1 4.713 12c0-2.883 1.693-5.378 4.157-6.573z"/></g><defs><clipPath id="a"><path fill="#fff" d="M0 0h24v24H0z"/></clipPath></defs></svg>
